haidilao.svg

<svg stroke-miterlimit="10" style="fill-rule:nonzero;clip-rule:evenodd;stroke-linecap:round;stroke-linejoin:round" viewBox="0 0 1024 1024" xml:space="preserve" xmlns="http://www.w3.org/2000/svg" xmlns:vectornator="http://vectornator.io"><g vectornator:layerName="Untitled"><path d="M511.458 311.159c-63.31 0-114.632 51.323-114.632 114.632 0 63.309 51.322 114.631 114.632 114.631 63.309 0 114.632-51.322 114.632-114.631s-51.323-114.632-114.632-114.632m-89.493 111.974c0-48.307 40.553-87.467 90.577-87.467 50.025 0 90.578 39.16 90.578 87.467 3.24 58.315-62.755 107.776-85.886 109.359 0 0 9.624-14.697-4.692-15.82-50.024 0-91.895-40.591-90.577-93.539" fill="#e50112"/><path d="M500.532 359.644s-18.04 28.562-28.94 66.147c-7.863 1.405-14.257 4.278-19.027 7.366-1.613 1.044-6.154 3.91-4.944 9.516.455 2.739 1.662 5.083 2.925 5.293 2.255.377 3.006 0 3.006 0l14.282-9.02s-7.517 31.947-7.892 35.705c-.376 3.758 0 7.893 5.637 12.027 5.638 4.134 10.148 1.879 10.9-6.014 1.128-21.798 8.268-48.859 8.268-48.859l26.71-7.628s-9.797 36.944-8.669 49.347c2.324 6.717 8.669 6.013 8.669 6.013s4.861-.376 5.613-9.021c.751-8.643 5.638-45.476 9.02-49.986 5.261 0 11.275-1.88 11.275-1.88s-2.255-5.261-9.396-5.637c3.759-9.396 11.638-29.691 11.638-29.691s1.685-4.058 0-9.396c-4.121-3.383-5.249-2.632-7.128-.752-1.879 1.879-17.664 42.094-17.664 42.094l-26.685 4.51s11.65-38.335 21.423-51.49c3.007-6.014 0-5.637-1.128-7.141-1.127-1.503-5.55-5.428-7.893-1.503M561.795 391.214s-3.383-10.523-9.02-3.007c-1.598 6.108 6.295 5.262 6.295 5.262v9.584s-.615 7.047-6.508 7.611c-5.895.564-5.613 1.691-5.331 5.356.281 3.664-8.739 26.215-9.021 36.362-.281 10.148 2.819 18.886 15.786 18.886 12.966 0 20.295-12.684 19.731-20.577 0 0-.453.227-1.65 1.04-2.073 1.407-6.242 13.054-14.417 11.363-4.792-.282-8.174-5.074-3.946-18.04 4.228-12.967 9.866-23.115 10.993-26.497.846-3.665-2.819-3.947-3.664-7.611 2.537-4.792.658-16.067.752-19.732M221.658 614.464h-25.087v-10.993h25.087v10.993ZM221.658 640.397h-25.087v-10.993h25.087v10.993ZM207.987 652.659v27.061s.704 12.402-12.403 21.563c8.175 9.866 8.879 10.148 8.879 10.148s16.067-9.584 17.195-31.007v-27.765h-13.671ZM235.188 598.679v13.248s-.423 2.537 2.96 2.537h77.095v-10.007h-66.665v-5.778h-13.39ZM252.195 633.727v18.932h15.597v-13.295l13.625-.093v13.388h17.852v-18.932h-47.074Zm-.375 30.349-.846 22.456h16.818v-16.818h13.625v16.818h17.852v-22.456H251.82Zm55.999-40.592c4.792.093 4.041 4.605 4.041 4.605l-.094 24.712 5.732.094v11.275h-5.638v22.362h4.416v10.242l-5.543-.001c-1.691 9.584-12.121 16.068-12.121 16.068s-1.691-1.692-9.02-10.148c3.382-1.41 6.483-5.92 6.483-5.92h-54.967c-3.664 0-3.382-3.664-3.382-3.664l.704-28.893h-8.879v-11.557h8.876s.144-17.477.003-23.255c-.14-5.779 4.933-5.92 4.933-5.92s59.664-.092 64.456 0M389.659 598.679v5.637l-43.492-.071s-2.666.353-2.548 3.454c.187 2.442-.008 71.785-.008 71.785s1.135 9.771-11.267 22.55c8.268 9.584 8.738 10.056 8.738 10.056s15.503-10.899 15.855-31.108l.024-66.518 89.074.095v-10.148l-42.939.094v-5.826h-13.437Z" fill="#e50112"/><path d="M378.243 634.759v20.366h32.98l-5.779-20.366h-27.201Zm65.537-10.24v10.171s-20.506.069-24.805.069c.25 1.743 5.637 20.225 5.637 20.225h21.423v10.148h-17.969c1.691 21.916 16.913 36.151 16.913 36.151s-4.933 6.343-8.246 10.219c-17.828-13.46-23.208-46.298-23.208-46.298h-35.141l-.094 18.134c.094 9.395 3.476 16.349 3.476 16.349s-1.879 2.63-7.892 10.618c-9.209-8.926-9.02-26.215-9.02-26.215v-55.531c0-3.382 3.57-4.04 3.57-4.04h75.356Z" fill="#e6020f"/><path d="M390.787 684.441s1.691 18.886 12.261 27.061c5.497-6.414 8.27-10.172 8.27-10.172s-6.296-7.798-7.142-16.889h-13.389ZM478.734 599.806v6.39h-9.96v10.711h9.96v28.752l-13.531 6.577 5.826 11.839 7.705-3.382v17.852s-.189 15.409-11.464 23.114c6.765 9.02 8.456 10.431 8.456 10.431s15.599-11.559 15.41-31.29l.001-27.625 9.019-6.013-5.449-9.96-3.571 1.504v-21.987h6.765v-10.148l-6.765.07v-6.835h-12.402ZM518.267 599.806v6.765h-13.53v10.219h13.53v6.623h11.276v-6.623h24.734v6.623h13.531v-6.694h12.403v-10.148h-12.403l-.14-6.765h-13.32v6.835h-24.805v-6.835h-11.276ZM508.472 629.122s-3.664.07-3.736 3.594c-.069 3.523 0 16.771 0 16.771h13.532v-10.182h49.611v10.182h11.204v-17.052s-.352-3.313-3.875-3.313h-66.736Z" fill="#e6020f"/><path d="M529.472 648.36v7.963h-23.607v10.078h23.607s-2.819 22.832-23.607 35.939c2.114 2.256 8.596 9.749 8.596 9.749s25.653-14.4 27.434-45.829h23.729v14.939s-.071 11.769-11.276 20.79l8.386 10.076s15.434-9.794 16.349-31.007v-21s.423-3.946-3.382-3.946c-2.819.07-33.806 0-33.806 0v-7.752h-12.423ZM603.889 606.43h12.543v25.088s.846 10.429 4.933 15.503c-4.51 5.779-7.47 9.302-7.47 9.302s-8.738-5.919-10.006-22.973c-.141-16.208 0-26.92 0-26.92M694.951 606.43h-12.544v25.088s-.846 10.429-4.933 15.503c4.51 5.779 7.47 9.302 7.47 9.302s8.738-5.919 10.007-22.973c.141-16.208 0-26.92 0-26.92" fill="#e6020f"/><path d="M642.225 599.806v37.772s-.423 33.967-47.357 63.001c2.256 2.959 7.611 11.511 7.611 11.511s31.43-17.008 46.933-51.538c13.108 30.161 44.961 50.597 47.779 50.879 4.369-6.483 5.92-9.161 6.906-11.416-26.919-14.799-48.342-47.638-48.342-63.282l-.141-36.927h-13.389ZM715.655 601.075v10.852s-.423 4.369 4.087 4.651c4.51.282 32.98 0 32.98 0V606.43h-23.537v-5.355h-13.53ZM715.643 627.853v11.135h10.019v14.798h-10.019v10.148h10.019v26.215s2.536 16.68 10.006 21.941c6.061-7.424 7.188-9.538 7.188-9.538s-6.06-6.483-5.919-17.477v-21h15.785v-10.148h-15.785v-14.516h15.785v-11.558h-37.079ZM776.259 620.102h34.953v-9.021h-34.953v9.021Zm44.396-19.027c4.51 0 4.087 3.523 4.087 3.523v20.718c0 4.37-3.664 4.933-3.664 4.933h-20.859v10.148h22.832c5.779.846 5.358 5.638 5.358 5.638l-.002 42.564c.141 15.221-7.329 23.491-7.329 23.491s-2.537-3.196-8.597-10.384c4.087-7.752 3.241-13.953 3.241-13.953v-36.222h-15.503c1.127 13.249 14.799 20.86 14.799 20.86s-4.511 7.329-6.343 9.584c0 0-11.275-7.47-14.517-14.658-3.1 7.329-14.798 14.939-14.798 14.939s-.705-1.268-6.343-9.865c15.504-8.739 14.376-20.86 14.376-20.86h-15.359c.022 5.711.123 34.534-.003 42.142-.141 8.456-5.215 18.417-5.215 18.417s-5.92-6.578-9.443-11.37c1.973-4.229 1.973-7.329 1.973-7.329v-48.202c.282-4.51 4.228-4.651 4.228-4.651h25.088v-10.007h-21.141c-4.933-.141-4.792-4.087-4.792-4.087s-.141-16.913 0-20.859c.141-4.792 4.792-4.51 4.792-4.51s48.483-.282 53.134 0" fill="#e6020f"/></g></svg>

<?xml version="1.0" encoding="UTF-8" standalone="no"?>
<!DOCTYPE svg PUBLIC "-//W3C//DTD SVG 1.1//EN" "http://www.w3.org/Graphics/SVG/1.1/DTD/svg11.dtd">
<!-- Created with Vectornator (http://vectornator.io/) -->
<svg height="100%" stroke-miterlimit="10" style="fill-rule:nonzero;clip-rule:evenodd;stroke-linecap:round;stroke-linejoin:round;" version="1.1" viewBox="0 0 1024 1024" width="100%" xml:space="preserve" xmlns="http://www.w3.org/2000/svg" xmlns:vectornator="http://vectornator.io" xmlns:xlink="http://www.w3.org/1999/xlink">
<defs/>
<g id="Untitled" vectornator:layerName="Untitled">
<g opacity="1">
<path d="M511.458 311.159C448.148 311.159 396.826 362.482 396.826 425.791C396.826 489.1 448.148 540.422 511.458 540.422C574.767 540.422 626.09 489.1 626.09 425.791C626.09 362.482 574.767 311.159 511.458 311.159M421.965 423.133C421.965 374.826 462.518 335.666 512.542 335.666C562.567 335.666 603.12 374.826 603.12 423.133C606.36 481.448 540.365 530.909 517.234 532.492C517.234 532.492 526.858 517.795 512.542 516.672C462.518 516.672 420.647 476.081 421.965 423.133" fill="#e50112" fill-rule="nonzero" opacity="1" stroke="none"/>
<path d="M500.532 359.644C500.532 359.644 482.492 388.206 471.592 425.791C463.729 427.196 457.335 430.069 452.565 433.157C450.952 434.201 446.411 437.067 447.621 442.673C448.076 445.412 449.283 447.756 450.546 447.966C452.801 448.343 453.552 447.966 453.552 447.966L467.834 438.946C467.834 438.946 460.317 470.893 459.942 474.651C459.566 478.409 459.942 482.544 465.579 486.678C471.217 490.812 475.727 488.557 476.479 480.664C477.607 458.866 484.747 431.805 484.747 431.805L511.457 424.177C511.457 424.177 501.66 461.121 502.788 473.524C505.112 480.241 511.457 479.537 511.457 479.537C511.457 479.537 516.318 479.161 517.07 470.516C517.821 461.873 522.708 425.04 526.09 420.53C531.351 420.53 537.365 418.65 537.365 418.65C537.365 418.65 535.11 413.389 527.969 413.013C531.728 403.617 539.607 383.322 539.607 383.322C539.607 383.322 541.292 379.264 539.607 373.926C535.486 370.543 534.358 371.294 532.479 373.174C530.6 375.053 514.815 415.268 514.815 415.268L488.13 419.778C488.13 419.778 499.78 381.443 509.553 368.288C512.56 362.274 509.553 362.651 508.425 361.147C507.298 359.644 502.875 355.719 500.532 359.644" fill="#e50112" fill-rule="nonzero" opacity="1" stroke="none"/>
<path d="M561.795 391.214C561.795 391.214 558.412 380.691 552.775 388.207C551.177 394.315 559.07 393.469 559.07 393.469L559.07 403.053C559.07 403.053 558.455 410.1 552.562 410.664C546.667 411.228 546.949 412.355 547.231 416.02C547.512 419.684 538.492 442.235 538.21 452.382C537.929 462.53 541.029 471.268 553.996 471.268C566.962 471.268 574.291 458.584 573.727 450.691C573.727 450.691 573.274 450.918 572.077 451.731C570.004 453.138 565.835 464.785 557.66 463.094C552.868 462.812 549.486 458.02 553.714 445.054C557.942 432.087 563.58 421.939 564.707 418.557C565.553 414.892 561.888 414.61 561.043 410.946C563.58 406.154 561.701 394.879 561.795 391.214" fill="#e50112" fill-rule="nonzero" opacity="1" stroke="none"/>
<path d="M221.658 614.464L196.571 614.464L196.571 603.471L221.658 603.471L221.658 614.464Z" fill="#e50112" fill-rule="nonzero" opacity="1" stroke="none"/>
<path d="M221.658 640.397L196.571 640.397L196.571 629.404L221.658 629.404L221.658 640.397Z" fill="#e50112" fill-rule="nonzero" opacity="1" stroke="none"/>
<path d="M207.987 652.659L207.987 679.72C207.987 679.72 208.691 692.122 195.584 701.283C203.759 711.149 204.463 711.431 204.463 711.431C204.463 711.431 220.53 701.847 221.658 680.424L221.658 652.659L207.987 652.659Z" fill="#e50112" fill-rule="nonzero" opacity="1" stroke="none"/>
<path d="M235.188 598.679L235.188 611.927C235.188 611.927 234.765 614.464 238.148 614.464L315.243 614.464L315.243 604.457L248.578 604.457L248.578 598.679L235.188 598.679Z" fill="#e50112" fill-rule="nonzero" opacity="1" stroke="none"/>
<path d="M252.195 633.727L252.195 652.659L267.792 652.659L267.792 639.364L281.417 639.271L281.417 652.659L299.269 652.659L299.269 633.727L252.195 633.727ZM251.82 664.076L250.974 686.532L267.792 686.532L267.792 669.714L281.417 669.714L281.417 686.532L299.269 686.532L299.269 664.076L251.82 664.076ZM307.819 623.484C312.611 623.577 311.86 628.089 311.86 628.089L311.766 652.801L317.498 652.895L317.498 664.17L311.86 664.17L311.86 686.532L316.276 686.532L316.276 696.774L310.733 696.773C309.042 706.357 298.612 712.841 298.612 712.841C298.612 712.841 296.921 711.149 289.592 702.693C292.974 701.283 296.075 696.773 296.075 696.773L241.108 696.773C237.444 696.773 237.726 693.109 237.726 693.109L238.43 664.216L229.551 664.216L229.551 652.659L238.427 652.659C238.427 652.659 238.571 635.182 238.43 629.404C238.29 623.625 243.363 623.484 243.363 623.484C243.363 623.484 303.027 623.392 307.819 623.484" fill="#e50112" fill-rule="nonzero" opacity="1" stroke="none"/>
<path d="M389.659 598.679L389.659 604.316L346.167 604.245C346.167 604.245 343.501 604.598 343.619 607.699C343.806 610.141 343.611 679.484 343.611 679.484C343.611 679.484 344.746 689.255 332.344 702.034C340.612 711.618 341.082 712.09 341.082 712.09C341.082 712.09 356.585 701.191 356.937 680.982L356.961 614.464L446.035 614.559L446.035 604.411L403.096 604.505L403.096 598.679L389.659 598.679Z" fill="#e50112" fill-rule="nonzero" opacity="1" stroke="none"/>
<path d="M378.243 634.759L378.243 655.125L411.223 655.125L405.444 634.759L378.243 634.759ZM443.78 624.519L443.78 634.69C443.78 634.69 423.274 634.759 418.975 634.759C419.225 636.502 424.612 654.984 424.612 654.984L446.035 654.984L446.035 665.132L428.066 665.132C429.757 687.048 444.979 701.283 444.979 701.283C444.979 701.283 440.046 707.626 436.733 711.502C418.905 698.042 413.525 665.204 413.525 665.204L378.384 665.204L378.29 683.338C378.384 692.733 381.766 699.687 381.766 699.687C381.766 699.687 379.887 702.317 373.874 710.305C364.665 701.379 364.854 684.09 364.854 684.09L364.854 628.559C364.854 625.177 368.424 624.519 368.424 624.519L443.78 624.519Z" fill="#e6020f" fill-rule="nonzero" opacity="1" stroke="none"/>
<path d="M390.787 684.441C390.787 684.441 392.478 703.327 403.048 711.502C408.545 705.088 411.318 701.33 411.318 701.33C411.318 701.33 405.022 693.532 404.176 684.441L390.787 684.441Z" fill="#e6020f" fill-rule="nonzero" opacity="1" stroke="none"/>
<path d="M478.734 599.806L478.734 606.196L468.774 606.196L468.774 616.907L478.734 616.907L478.734 645.659L465.203 652.236L471.029 664.075L478.734 660.693L478.734 678.545C478.734 678.545 478.545 693.954 467.27 701.659C474.035 710.679 475.726 712.09 475.726 712.09C475.726 712.09 491.325 700.531 491.136 680.8C491.136 674.974 491.137 653.175 491.137 653.175L500.156 647.162L494.707 637.202L491.136 638.706L491.136 616.719L497.901 616.719L497.901 606.571L491.136 606.641L491.136 599.806L478.734 599.806Z" fill="#e6020f" fill-rule="nonzero" opacity="1" stroke="none"/>
<path d="M518.267 599.806L518.267 606.571L504.737 606.571L504.737 616.79L518.267 616.79L518.267 623.413L529.543 623.413L529.543 616.79L554.277 616.79L554.277 623.413L567.808 623.413L567.808 616.719L580.211 616.719L580.211 606.571L567.808 606.571L567.668 599.806L554.348 599.806L554.348 606.641L529.543 606.641L529.543 599.806L518.267 599.806Z" fill="#e6020f" fill-rule="nonzero" opacity="1" stroke="none"/>
<path d="M508.472 629.122C508.472 629.122 504.808 629.192 504.736 632.716C504.667 636.239 504.736 649.487 504.736 649.487L518.268 649.487L518.268 639.305L567.879 639.305L567.879 649.487L579.083 649.487L579.083 632.435C579.083 632.435 578.731 629.122 575.208 629.122L508.472 629.122Z" fill="#e6020f" fill-rule="nonzero" opacity="1" stroke="none"/>
<path d="M529.472 648.36L529.472 656.323L505.865 656.323L505.865 666.401L529.472 666.401C529.472 666.401 526.653 689.233 505.865 702.34C507.979 704.596 514.461 712.089 514.461 712.089C514.461 712.089 540.114 697.689 541.895 666.26L565.624 666.26L565.624 681.199C565.624 681.199 565.553 692.968 554.348 701.989L562.734 712.065C562.734 712.065 578.168 702.271 579.083 681.058L579.083 660.058C579.083 660.058 579.506 656.112 575.701 656.112C572.882 656.182 541.895 656.112 541.895 656.112L541.895 648.36L529.472 648.36Z" fill="#e6020f" fill-rule="nonzero" opacity="1" stroke="none"/>
<path d="M603.889 606.43L616.432 606.43L616.432 631.518C616.432 631.518 617.278 641.947 621.365 647.021C616.855 652.8 613.895 656.323 613.895 656.323C613.895 656.323 605.157 650.404 603.889 633.35C603.748 617.142 603.889 606.43 603.889 606.43" fill="#e6020f" fill-rule="nonzero" opacity="1" stroke="none"/>
<path d="M694.951 606.43L682.407 606.43L682.407 631.518C682.407 631.518 681.561 641.947 677.474 647.021C681.984 652.8 684.944 656.323 684.944 656.323C684.944 656.323 693.682 650.404 694.951 633.35C695.092 617.142 694.951 606.43 694.951 606.43" fill="#e6020f" fill-rule="nonzero" opacity="1" stroke="none"/>
<path d="M642.225 599.806L642.225 637.578C642.225 637.578 641.802 671.545 594.868 700.579C597.124 703.538 602.479 712.09 602.479 712.09C602.479 712.09 633.909 695.082 649.412 660.552C662.52 690.713 694.373 711.149 697.191 711.431C701.56 704.948 703.111 702.27 704.097 700.015C677.178 685.216 655.755 652.377 655.755 636.733L655.614 599.806L642.225 599.806Z" fill="#e6020f" fill-rule="nonzero" opacity="1" stroke="none"/>
<path d="M715.655 601.075L715.655 611.927C715.655 611.927 715.232 616.296 719.742 616.578C724.252 616.86 752.722 616.578 752.722 616.578L752.722 606.43L729.185 606.43L729.185 601.075L715.655 601.075Z" fill="#e6020f" fill-rule="nonzero" opacity="1" stroke="none"/>
<path d="M715.643 627.853L715.643 638.988L725.662 638.988L725.662 653.786L715.643 653.786L715.643 663.934L725.662 663.934L725.662 690.149C725.662 690.149 728.198 706.829 735.668 712.09C741.729 704.666 742.856 702.552 742.856 702.552C742.856 702.552 736.796 696.069 736.937 685.075L736.937 664.075L752.722 664.075L752.722 653.927L736.937 653.927L736.937 639.411L752.722 639.411L752.722 627.853L715.643 627.853Z" fill="#e6020f" fill-rule="nonzero" opacity="1" stroke="none"/>
<path d="M776.259 620.102L811.212 620.102L811.212 611.081L776.259 611.081L776.259 620.102ZM820.655 601.075C825.165 601.075 824.742 604.598 824.742 604.598L824.742 625.316C824.742 629.686 821.078 630.249 821.078 630.249L800.219 630.249L800.219 640.397L823.051 640.397C828.83 641.243 828.409 646.035 828.409 646.035L828.407 688.599C828.548 703.82 821.078 712.09 821.078 712.09C821.078 712.09 818.541 708.894 812.481 701.706C816.568 693.954 815.722 687.753 815.722 687.753L815.722 651.531L800.219 651.531C801.346 664.78 815.018 672.391 815.018 672.391C815.018 672.391 810.507 679.72 808.675 681.975C808.675 681.975 797.4 674.505 794.158 667.317C791.058 674.646 779.36 682.256 779.36 682.256C779.36 682.256 778.655 680.988 773.017 672.391C788.521 663.652 787.393 651.531 787.393 651.531L772.034 651.531C772.056 657.242 772.157 686.065 772.031 693.673C771.89 702.129 766.816 712.09 766.816 712.09C766.816 712.09 760.896 705.512 757.373 700.72C759.346 696.491 759.346 693.391 759.346 693.391L759.346 645.189C759.628 640.679 763.574 640.538 763.574 640.538L788.662 640.538L788.662 630.531L767.521 630.531C762.588 630.39 762.729 626.444 762.729 626.444C762.729 626.444 762.588 609.531 762.729 605.585C762.87 600.793 767.521 601.075 767.521 601.075C767.521 601.075 816.004 600.793 820.655 601.075" fill="#e6020f" fill-rule="nonzero" opacity="1" stroke="none"/>
</g>
</g>
</svg>
